svgs/sharp-thin/chart-gantt.svg

<svg xmlns="http://www.w3.org/2000/svg" viewBox="0 0 512 512"><!--! Font Awesome Pro 6.6.0 by @fontawesome - https://fontawesome.com License - https://fontawesome.com/license (Commercial License) Copyright 2024 Fonticons, Inc. --><path d="M16 40l0-8L0 32l0 8L0 472l0 8 8 0 496 0 8 0 0-16-8 0L16 464 16 40zm128 88l16 0 96 0 16 0 0 32-16 0-96 0-16 0 0-32zm144 48l0-16 0-32 0-16-16 0-16 0-96 0-16 0-16 0 0 16 0 32 0 16 16 0 16 0 96 0 16 0 16 0zm-80 48l16 0 128 0 16 0 0 32-16 0-128 0-16 0 0-32zm128 96l16 0 96 0 16 0 0 32-16 0-96 0-16 0 0-32zM224 208l-16 0-16 0 0 16 0 32 0 16 16 0 16 0 128 0 16 0 16 0 0-16 0-32 0-16-16 0-16 0-128 0zm128 96l-16 0-16 0 0 16 0 32 0 16 16 0 16 0 96 0 16 0 16 0 0-16 0-32 0-16-16 0-16 0-96 0z"/></svg>

<svg xmlns="http://www.w3.org/2000/svg" viewBox="0 0 512 512"><!--! Font Awesome Pro 6.5.2 by @fontawesome - https://fontawesome.com License - https://fontawesome.com/license (Commercial License) Copyright 2024 Fonticons, Inc. --><path d="M16 40V32H0v8V472v8H8 504h8V464h-8H16V40zm128 88l16 0 96 0h16v32l-16 0-96 0-16 0V128zm144 48V160l0-32V112H272 256l-96 0-16 0H128v16 32 16h16l16 0 96 0 16 0 16 0zm-80 48h16H352h16v32H352 224 208V224zm128 96h16 96 16v32H448 352 336V320zM224 208H208 192v16 32 16h16 16H352h16 16V256 224 208H368 352 224zm128 96H336 320v16 32 16h16 16 96 16 16V352 320 304H464 448 352z"/></svg>
